src/assets/social/SocialDiscord.svg

<svg viewBox="0 0 24 24" xmlns="http://www.w3.org/2000/svg">
<path d="M20.7273 5.45455C20.7273 5.45455 18.2264 3.49746 15.2727 3.27273L15.0065 3.80509C17.6771 4.45855 18.9022 5.39509 20.1818 6.54546C17.9755 5.41909 15.7969 4.36364 12 4.36364C8.20309 4.36364 6.02455 5.41909 3.81818 6.54546C5.09782 5.39509 6.55527 4.35546 8.99345 3.80509L8.72727 3.27273C5.62855 3.56564 3.27273 5.45455 3.27273 5.45455C3.27273 5.45455 0.479455 9.50455 0 17.4545C2.81564 20.7016 7.09091 20.7273 7.09091 20.7273L7.98491 19.5355C6.46745 19.008 4.75364 18.066 3.27273 16.3636C5.03891 17.7 7.70455 19.0909 12 19.0909C16.2955 19.0909 18.9611 17.7 20.7273 16.3636C19.2464 18.066 17.5325 19.008 16.0151 19.5355L16.9091 20.7273C16.9091 20.7273 21.1844 20.7016 24 17.4545C23.5205 9.50455 20.7273 5.45455 20.7273 5.45455ZM8.45455 15.2727C7.40018 15.2727 6.54545 14.2958 6.54545 13.0909C6.54545 11.886 7.40018 10.9091 8.45455 10.9091C9.50891 10.9091 10.3636 11.886 10.3636 13.0909C10.3636 14.2958 9.50891 15.2727 8.45455 15.2727ZM15.5455 15.2727C14.4911 15.2727 13.6364 14.2958 13.6364 13.0909C13.6364 11.886 14.4911 10.9091 15.5455 10.9091C16.5998 10.9091 17.4545 11.886 17.4545 13.0909C17.4545 14.2958 16.5998 15.2727 15.5455 15.2727Z" />
</svg>

<svg xmlns="http://www.w3.org/2000/svg" viewBox="0 0 24 24"><path d="M20.727 5.455s-2.5-1.958-5.454-2.182l-.266.532c2.67.654 3.895 1.59 5.175 2.74C17.976 5.42 15.797 4.364 12 4.364c-3.797 0-5.975 1.055-8.182 2.181 1.28-1.15 2.737-2.19 5.175-2.74l-.266-.532c-3.098.293-5.454 2.182-5.454 2.182S.479 9.505 0 17.455c2.816 3.247 7.09 3.272 7.09 3.272l.895-1.192a10.924 10.924 0 0 1-4.712-3.171C5.039 17.7 7.705 19.09 12 19.09c4.296 0 6.961-1.391 8.727-2.727a10.924 10.924 0 0 1-4.712 3.171l.894 1.192s4.275-.025 7.091-3.273c-.48-7.95-3.273-12-3.273-12M8.455 15.273c-1.055 0-1.91-.977-1.91-2.182s.855-2.182 1.91-2.182c1.054 0 1.909.977 1.909 2.182s-.855 2.182-1.91 2.182m7.09 0c-1.054 0-1.909-.977-1.909-2.182s.855-2.182 1.91-2.182c1.054 0 1.909.977 1.909 2.182s-.855 2.182-1.91 2.182"/></svg>
